X:1
T: Castle Spyne
C:
R:Strathspey
Q: 128
K:D
M:4/4
L:1/16
|:B2|A3F G3E FA3 d3e|f3e d3f eE3 E3B|A3F G3E FA3 A3e|f3d e3c d4 d2B2|
A3F G3E FA3 d3e|f3e d3f eE3 E3B|A3F G3E FA3 A3e|f3d e3c d2D2 D2fg|
a3f g3e fa3 d2cd|e3c d3B ce3 A2fg|a3f g3e fd3 B3g|f3d e3c d4-d2fg|
a3f g3e fa3 d2cd|e3c d3B ce3 A2fg|((3a2g2f2) ((3e2d2c2) ((3B2c2d2) ((3e2f2g2) |((3f2e2d2) ((3e2d2c2) d4-d2:|
